img/arrowsecond_m.svg

<svg width="9" height="13" viewBox="0 0 9 13" fill="none" xmlns="http://www.w3.org/2000/svg">
<path d="M1.11277 6.0343L6.5388 0.721489C6.66429 0.598511 6.83182 0.530762 7.01045 0.530762C7.18908 0.530762 7.35661 0.598511 7.48211 0.721489L7.8817 1.11265C8.14171 1.36754 8.14171 1.7818 7.8817 2.0363L3.32533 6.49767L7.88675 10.964C8.01225 11.087 8.08154 11.2509 8.08154 11.4257C8.08154 11.6007 8.01225 11.7647 7.88675 11.8877L7.48717 12.2788C7.36157 12.4018 7.19414 12.4695 7.01551 12.4695C6.83688 12.4695 6.66935 12.4018 6.54385 12.2788L1.11277 6.96115C0.986976 6.83778 0.917883 6.67307 0.918279 6.49797C0.917883 6.32219 0.986976 6.15757 1.11277 6.0343Z" fill="white"/>
</svg>

<svg width="9" height="13" fill="none" xmlns="http://www.w3.org/2000/svg"><path d="M1.113 6.034L6.539.721a.67.67 0 01.471-.19.67.67 0 01.472.19l.4.392c.26.255.26.669 0 .923L3.325 6.498l4.562 4.466a.642.642 0 010 .924l-.4.39a.67.67 0 01-.471.191.67.67 0 01-.472-.19L1.113 6.96a.642.642 0 01-.195-.463c0-.176.069-.34.195-.464z" fill="#fff"/></svg>
